X:1     %Music
T:The Bailiff's Daughter of Waterford Town
B:Journal of the English Folk Dance and Song Society, Dec 1951
F:http://www.folkinfo.org/songs
S:Walter Roast, East Chezzetcook, July 17, 1937
Z:Doreen H Senior and Helen Creighton
Q:1/4=108    %Tempo
M:4/4     %Meter
L:1/8     %
K:G
E F |G2 (FE) D2 E F |(G/E3/2) (F/D3/2) E2 
w:Now it's of a_ youth and a well_ bred_ youth 
G A |B B (^cd) (e/c3/2) d c |  B6
w:And he be-ing a_ squire's_ on-ly son
(GA) |B2 (^cd) (ed) c c |(d^c) (BA) F F
w:He_ fell in_ love_ with a bail-*iff's_ daugh-ter 
 E D |E2 (dB) (BA) A F | E6  |]
w:when she lived near_ Wa-*ter-ford town. 